public/mascots/dropout/hawk-64x64.svg

<svg xmlns="http://www.w3.org/2000/svg" width="64" height="64" viewBox="0 0 64 64"><defs><linearGradient id="a" x1="0%" x2="100%" y1="0%" y2="100%"><stop offset="0%" style="stop-color:#d00000"/><stop offset="50%" style="stop-color:#9d0208"/><stop offset="100%" style="stop-color:#6a040f"/></linearGradient><linearGradient id="b" x1="0%" x2="0%" y1="0%" y2="100%"><stop offset="0%" style="stop-color:#6a040f"/><stop offset="50%" style="stop-color:#4a040f"/><stop offset="100%" style="stop-color:#370617"/></linearGradient><linearGradient id="c" x1="0%" x2="100%" y1="0%" y2="100%"><stop offset="0%" style="stop-color:#ffba08"/><stop offset="50%" style="stop-color:#faa307"/><stop offset="100%" style="stop-color:#e85d04"/></linearGradient></defs><ellipse cx="32" cy="40" fill="url(#a)" rx="14" ry="16"/><path fill="url(#b)" d="M20 36q12-4 24 0v16q-12 4-24 0Z"/><path fill="none" stroke="url(#c)" stroke-width="1.5" d="M20 36v16m24-16v16"/><path fill="none" stroke="url(#c)" d="M20 36q6 4 12 2 6 2 12-2"/><path stroke="#faa307" stroke-dasharray="2,1" stroke-width=".8" d="M32 38v16"/><ellipse cx="32" cy="20" fill="url(#a)" rx="10" ry="8"/><path fill="none" stroke="#9d0208" stroke-width=".5" d="M24 16q4-2 6 2M40 16q-4-2-6 2"/><path fill="url(#c)" d="m40 17 10 3-10 4Z"/><path fill="none" stroke="#e85d04" stroke-width=".5" d="m40 17 10 3-10 4"/><path fill="#ffd60a" d="m42 19 4 1-4 1"/><ellipse cx="28" cy="18" fill="#fff" rx="4" ry="3"/><ellipse cx="36" cy="18" fill="#fff" rx="4" ry="3"/><ellipse cx="29" cy="18" rx="2.5" ry="2"/><ellipse cx="37" cy="18" rx="2.5" ry="2"/><circle cx="30" cy="17" r="1" fill="#fff"/><circle cx="38" cy="17" r="1" fill="#fff"/><path stroke="#370617" stroke-linecap="round" stroke-width="2" d="m22 14 5 3M42 14l-5 3"/><path fill="#9d0208" d="m18 38-6 10 6-4M46 38l6 10-6-4"/><path stroke="#faa307" d="m15 42-1 4M49 42l1 4"/><rect width="4" height="5" x="23" y="42" fill="none" stroke="#faa307" stroke-width=".5" rx="1"/><rect width="4" height="5" x="37" y="42" fill="none" stroke="#faa307" stroke-width=".5" rx="1"/></svg>

<svg xmlns="http://www.w3.org/2000/svg" width="64" height="64" viewBox="0 0 64 64">
  <!-- Dropout Style Hawk - 64x64 -->
  <defs>
    <linearGradient id="dropoutBody64" x1="0%" y1="0%" x2="100%" y2="100%">
      <stop offset="0%" style="stop-color:#D00000"/>
      <stop offset="50%" style="stop-color:#9D0208"/>
      <stop offset="100%" style="stop-color:#6A040F"/>
    </linearGradient>
    <linearGradient id="jacket64" x1="0%" y1="0%" x2="0%" y2="100%">
      <stop offset="0%" style="stop-color:#6A040F"/>
      <stop offset="50%" style="stop-color:#4A040F"/>
      <stop offset="100%" style="stop-color:#370617"/>
    </linearGradient>
    <linearGradient id="goldAccent64" x1="0%" y1="0%" x2="100%" y2="100%">
      <stop offset="0%" style="stop-color:#FFBA08"/>
      <stop offset="50%" style="stop-color:#FAA307"/>
      <stop offset="100%" style="stop-color:#E85D04"/>
    </linearGradient>
  </defs>
  
  <!-- Body -->
  <ellipse cx="32" cy="40" rx="14" ry="16" fill="url(#dropoutBody64)"/>
  
  <!-- Aviator Jacket -->
  <path d="M20 36 Q32 32 44 36 L44 52 Q32 56 20 52 Z" fill="url(#jacket64)"/>
  <path d="M20 36 L20 52 M44 36 L44 52" stroke="url(#goldAccent64)" stroke-width="1.5" fill="none"/>
  
  <!-- Jacket Collar -->
  <path d="M20 36 Q26 40 32 38 Q38 40 44 36" stroke="url(#goldAccent64)" stroke-width="1" fill="none"/>
  
  <!-- Zipper line -->
  <line x1="32" y1="38" x2="32" y2="54" stroke="#FAA307" stroke-width="0.8" stroke-dasharray="2,1"/>
  
  <!-- Head -->
  <ellipse cx="32" cy="20" rx="10" ry="8" fill="url(#dropoutBody64)"/>
  
  <!-- Feather details on head -->
  <path d="M24 16 Q28 14 30 18" stroke="#9D0208" stroke-width="0.5" fill="none"/>
  <path d="M40 16 Q36 14 34 18" stroke="#9D0208" stroke-width="0.5" fill="none"/>
  
  <!-- Sharp Beak -->
  <path d="M40 17 L50 20 L40 24 Z" fill="url(#goldAccent64)"/>
  <path d="M40 17 L50 20 L40 24" stroke="#E85D04" stroke-width="0.5" fill="none"/>
  
  <!-- Beak shine -->
  <path d="M42 19 L46 20 L42 21" fill="#FFD60A"/>
  
  <!-- Intense Eyes with white sclera -->
  <ellipse cx="28" cy="18" rx="4" ry="3" fill="#FFFFFF"/>
  <ellipse cx="36" cy="18" rx="4" ry="3" fill="#FFFFFF"/>
  
  <!-- Pupils -->
  <ellipse cx="29" cy="18" rx="2.5" ry="2" fill="#000000"/>
  <ellipse cx="37" cy="18" rx="2.5" ry="2" fill="#000000"/>
  
  <!-- Eye highlights -->
  <circle cx="30" cy="17" r="1" fill="#FFFFFF"/>
  <circle cx="38" cy="17" r="1" fill="#FFFFFF"/>
  
  <!-- Sharp Angled Brow -->
  <path d="M22 14 L27 17" stroke="#370617" stroke-width="2" stroke-linecap="round"/>
  <path d="M42 14 L37 17" stroke="#370617" stroke-width="2" stroke-linecap="round"/>
  
  <!-- Wing details (folded) -->
  <path d="M18 38 L12 48 L18 44" fill="#9D0208"/>
  <path d="M46 38 L52 48 L46 44" fill="#9D0208"/>
  
  <!-- Wing accents -->
  <path d="M15 42 L14 46" stroke="#FAA307" stroke-width="1"/>
  <path d="M49 42 L50 46" stroke="#FAA307" stroke-width="1"/>
  
  <!-- Jacket pockets -->
  <rect x="23" y="42" width="4" height="5" rx="1" fill="none" stroke="#FAA307" stroke-width="0.5"/>
  <rect x="37" y="42" width="4" height="5" rx="1" fill="none" stroke="#FAA307" stroke-width="0.5"/>
</svg>
